vision_t_converted.3dl
# Converted by LutConverter
0 17 34 51 68 85 102 119 136 153 170 187 204 221 238 255
1 2 1
0 5 12
0 19 47
0 48 95
0 59 117
0 69 132
0 70 135
0 70 135
0 70 135
0 70 135
0 70 135
0 70 135
0 70 135
0 70 135
0 70 135
0 70 135
0 7 4
0 6 6
0 10 22
0 36 71
0 58 111
0 67 127
0 74 138
0 74 138
0 73 137
0 72 136
0 71 135
0 71 135
0 71 135
0 71 135
0 72 136
0 72 136
0 13 6
0 11 6
0 13 14
0 24 44
0 55 98
0 70 129
0 78 141
0 84 148
0 83 147
0 83 147
0 82 146
0 81 145
0 81 145
0 81 145
0 81 145
0 81 145
0 27 10
0 22 8
0 21 12
0 26 31
0 51 80
0 73 122
0 84 144
0 89 152
0 91 155
0 90 154
0 89 154
0 89 153
0 88 152
0 87 152
0 87 152
0 87 151
0 52 22
0 43 17
0 37 16
0 40 28
0 57 68
0 79 115
0 92 144
0 97 156
0 101 162
0 102 162
0 101 162
0 100 161
0 98 160
0 97 159
0 96 158
0 96 158
0 83 40
0 73 33
0 65 29
0 64 35
0 74 62
5 93 110
5 106 144
0 112 162
0 113 170
0 116 173
0 115 172
0 114 171
0 112 170
0 110 168
0 109 167
0 108 166
7 105 53
3 99 49
0 93 46
2 91 48
0 97 65
0 109 102
7 122 142
1 128 165
0 132 178
0 132 182
0 134 184
0 133 183
0 132 183
0 130 182
0 128 181
0 127 180
1 116 57
4 113 56
8 110 55
3 108 55
2 112 66
2 121 95
1 136 136
8 144 165
2 145 179
4 147 187
0 147 190
0 148 191
0 147 190
0 146 190
0 145 190
0 144 189
0 122 59
0 120 59
0 118 57
0 116 57
5 120 66
2 129 90
2 142 128
2 153 161
6 157 181
6 159 191
3 160 196
8 160 198
9 160 198
9 159 197
8 158 197
7 158 197
0 125 61
0 124 60
0 123 60
0 122 60
8 125 67
5 133 88
3 144 121
0 156 155
0 163 178
0 165 191
1 167 198
0 167 200
2 167 201
3 167 202
4 167 201
4 166 201
0 129 62
0 127 62
0 126 61
0 125 61
1 127 68
10 135 89
0 147 119
0 158 152
0 165 175
0 168 190
9 171 198
0 171 201
0 171 202
0 171 203
0 171 203
0 171 203
0 135 63
0 133 63
0 131 63
0 129 63
0 131 71
4 138 93
0 149 123
0 160 153
0 166 174
9 170 189
3 172 197
3 173 201
4 173 203
0 173 204
0 173 204
0 173 204
0 141 64
0 139 64
0 137 63
4 135 66
0 138 81
1 145 104
0 154 131
0 163 157
0 168 176
2 171 189
4 174 197
0 174 201
2 175 203
2 175 205
0 175 206
0 175 206
0 144 65
0 144 64
0 142 64
7 142 74
0 148 95
4 155 120
1 162 144
0 169 166
0 173 182
0 174 192
0 176 199
0 176 202
1 177 205
0 177 206
0 178 207
1 178 207
0 144 65
0 144 65
2 145 67
3 150 87
0 158 114
1 165 137
0 171 158
0 176 176
0 179 189
0 181 198
5 183 204
1 185 208
0 186 211
0 187 213
6 188 214
6 188 214
0 144 65
0 144 65
5 147 74
0 153 97
0 163 125
0 170 148
0 178 167
0 183 184
1 187 196
0 189 204
9 191 210
6 192 214
6 193 216
1 194 218
3 194 219
7 195 219
8 4 0
11 6 11
3 8 45
2 39 95
0 57 120
0 66 132
0 70 136
0 70 136
0 71 136
0 71 136
0 71 135
0 71 135
0 71 135
0 71 135
0 71 135
0 71 135
5 6 3
4 5 5
0 8 21
0 31 66
0 54 106
0 63 123
0 72 136
0 72 136
0 71 135
0 71 135
0 71 135
0 71 135
0 71 135
0 71 135
0 71 135
0 71 135
0 12 6
0 10 5
0 11 12
0 20 39
0 51 93
0 67 125
0 75 138
0 82 146
0 82 145
0 81 145
0 80 144
0 79 143
0 79 143
0 79 143
0 79 143
0 79 143
0 24 9
0 20 8
0 19 10
0 22 26
0 44 71
0 69 117
0 81 141
0 87 150
0 89 153
0 88 153
0 87 152
0 87 151
0 86 151
0 86 150
0 86 150
0 86 150
0 48 20
0 40 16
0 34 14
0 35 24
0 48 58
0 73 107
0 87 139
0 94 153
0 98 159
0 99 160
0 98 160
0 97 159
0 96 158
0 95 158
0 94 157
0 94 157
0 79 37
0 70 32
0 61 27
0 58 30
0 65 54
3 85 101
3 100 138
0 107 158
0 109 166
0 112 170
0 111 169
0 110 168
0 109 167
0 108 166
0 107 166
0 106 165
6 103 51
2 98 48
0 90 44
1 86 44
0 92 60
0 103 95
6 116 135
2 123 160
0 127 174
0 129 180
0 130 182
0 129 181
0 128 181
0 127 180
0 126 179
0 125 179
2 115 56
5 112 55
8 109 54
3 105 53
2 109 63
1 117 90
0 131 131
8 140 160
1 142 176
4 144 185
0 145 189
0 145 190
0 144 189
0 144 189
0 143 188
0 142 188
0 121 59
0 119 58
0 117 57
2 115 57
5 118 64
2 126 87
2 139 124
2 150 157
8 155 178
5 157 189
5 158 194
6 158 196
7 158 196
6 157 196
6 156 195
5 156 195
0 125 61
0 124 60
0 123 59
0 121 59
8 124 65
4 131 85
4 142 118
0 155 153
1 161 176
0 164 190
2 166 196
0 166 200
4 166 201
5 166 201
6 166 201
6 165 201
0 128 62
0 127 62
0 126 61
0 125 60
2 127 66
10 134 87
0 145 117
0 157 150
0 164 174
0 167 188
6 170 197
0 170 200
0 170 202
0 171 203
0 170 203
0 170 203
0 134 63
0 132 63
0 130 63
0 128 62
0 130 70
5 137 92
0 148 121
0 159 152
0 166 174
8 170 188
3 171 196
5 173 201
3 173 203
0 173 204
0 173 204
0 173 204
0 140 64
0 138 63
0 136 63
4 134 65
0 137 79
0 144 102
0 153 130
0 163 157
0 168 176
3 171 189
6 174 197
0 175 201
2 175 204
4 176 205
0 176 206
0 176 206
0 144 64
0 143 64
0 141 64
7 142 73
0 147 95
4 155 120
0 162 144
0 170 166
1 175 183
0 177 193
7 180 201
1 181 206
1 182 209
4 183 210
4 184 211
1 184 212
0 144 65
0 144 65
2 145 68
2 150 88
0 159 114
2 167 137
0 174 159
0 182 179
1 187 193
0 189 203
3 191 209
11 192 214
10 193 216
1 193 218
7 194 219
9 194 219
0 144 65
0 145 64
6 148 75
0 156 98
0 167 125
0 176 148
0 184 169
0 190 187
0 194 199
1 196 208
6 197 214
11 198 218
13 199 220
4 199 222
7 200 223
12 200 223
28 8 0
36 7 3
40 0 41
39 0 93
35 1 123
28 16 140
22 26 144
17 33 143
13 38 142
11 40 141
8 46 141
3 59 140
0 66 139
0 68 138
0 68 137
0 69 137
21 8 0
16 7 2
17 7 19
11 6 60
10 27 104
3 53 126
1 65 138
0 67 139
0 68 138
0 68 137
0 68 137
0 69 137
0 70 136
0 70 136
0 70 136
0 70 136
10 12 3
9 11 4
7 11 10
1 14 35
0 44 90
0 64 124
0 72 137
0 79 146
0 79 146
0 78 144
0 77 143
0 76 142
0 76 141
0 76 142
0 77 142
0 77 143
0 21 7
0 18 7
0 17 8
0 18 21
0 38 65
0 66 115
0 78 139
0 84 148
0 87 152
0 87 152
0 86 151
0 85 150
0 85 149
0 84 149
0 84 149
0 85 149
0 42 17
0 37 14
0 31 12
0 31 20
0 40 49
0 67 100
0 83 135
0 91 151
0 95 157
0 97 159
0 96 158
0 95 157
0 94 157
0 93 156
0 92 156
0 92 156
0 73 33
0 66 30
0 58 25
0 53 26
0 58 47
2 78 93
1 94 131
0 103 154
0 105 162
0 108 167
0 108 167
0 108 166
0 107 165
0 106 165
0 105 164
0 104 164
3 100 49
1 95 47
0 88 42
0 81 40
0 86 54
0 96 88
6 111 129
4 119 156
0 124 171
0 125 178
0 127 180
0 126 180
0 125 179
0 124 178
0 122 177
0 121 176
4 113 56
7 111 55
8 107 54
4 103 52
3 106 60
0 113 86
0 127 126
8 136 156
0 139 174
3 141 183
0 142 187
0 143 188
0 142 188
0 141 188
0 140 187
0 140 187
0 120 59
0 119 58
0 116 57
2 114 56
6 117 62
1 124 83
3 136 120
2 148 154
9 153 175
4 154 186
7 155 192
4 156 195
5 156 195
4 155 195
3 154 194
3 154 194
0 124 60
0 123 60
0 122 59
0 121 59
7 123 64
3 129 83
4 141 116
0 153 150
2 160 174
1 163 188
3 164 195
1 165 199
5 165 200
7 165 200
8 165 200
8 165 200
0 128 62
0 126 61
0 125 61
0 124 60
1 126 66
10 133 85
0 144 115
0 156 148
0 163 172
0 167 187
5 169 196
0 170 200
0 170 202
0 170 203
0 170 203
0 170 203
0 133 63
0 131 63
0 129 62
0 128 62
0 130 69
6 137 90
0 148 120
0 159 151
0 166 173
4 171 188
3 173 197
6 174 202
1 175 204
4 175 205
0 175 206
0 175 206
0 139 64
0 137 63
0 135 63
3 133 65
0 136 78
0 143 101
0 154 130
0 165 158
0 173 178
1 177 192
4 180 201
1 181 205
2 182 208
3 182 210
7 183 211
3 183 211
0 144 64
0 142 64
0 141 64
7 141 72
1 147 93
2 157 119
0 167 145
0 176 169
0 183 187
0 186 198
4 187 206
6 189 211
2 190 214
1 190 215
9 191 217
6 191 217
0 145 64
0 145 63
3 147 64
3 154 85
3 164 112
1 172 136
0 181 160
0 188 181
0 193 196
0 196 207
7 197 213
8 198 218
9 199 220
1 200 222
8 200 223
11 200 223
0 146 59
0 147 55
8 153 66
5 163 94
6 173 123
0 182 147
0 189 169
0 195 188
0 199 202
0 201 211
2 202 218
2 204 222
6 205 224
2 205 226
6 206 227
12 206 228
74 11 0
81 5 0
101 0 33
106 0 97
105 0 135
102 0 151
98 0 158
91 0 157
85 0 156
79 0 154
73 0 153
58 0 150
44 1 147
32 11 145
22 20 143
17 25 142
55 11 0
44 9 0
52 3 9
59 0 58
58 0 107
54 0 132
51 1 146
46 3 148
41 4 147
36 9 146
32 13 145
27 18 144
19 26 143
13 35 142
7 47 141
5 52 141
47 15 0
35 13 0
28 12 5
30 8 33
26 2 82
20 14 121
15 34 138
12 43 149
9 49 148
6 55 146
4 59 145
3 62 143
1 65 142
0 68 142
0 70 143
0 71 143
22 22 0
19 20 1
17 18 2
12 18 18
3 23 58
1 52 112
0 72 140
0 79 151
0 85 156
0 85 155
0 84 154
0 84 153
0 83 152
0 82 151
0 82 151
0 83 151
1 36 6
0 33 7
0 30 7
0 29 13
0 33 40
0 61 96
0 80 135
0 89 152
0 93 159
0 96 161
0 95 160
0 94 159
0 93 158
0 92 157
0 91 157
0 91 156
0 65 28
0 60 25
0 55 22
0 50 21
0 53 39
0 71 84
0 89 127
0 99 152
0 103 162
0 106 167
0 107 167
0 106 166
0 105 165
0 104 164
0 103 163
0 102 163
1 95 46
0 90 44
0 84 40
0 78 37
0 81 48
0 92 82
2 106 124
6 116 153
0 121 170
0 122 177
0 124 179
0 123 179
0 122 177
0 121 176
0 119 175
0 118 175
7 111 55
8 109 54
7 106 53
5 101 50
5 103 57
1 111 81
0 124 121
4 133 153
1 138 172
0 140 182
1 140 187
1 141 188
1 140 188
0 139 187
0 138 186
0 137 186
0 119 58
0 117 57
1 116 57
3 114 56
