vision_t_converted.3dl
# Converted by LutConverter
0 51 102 153 204 255
1 2 1
0 48 95
0 70 135
0 70 135
0 70 135
0 70 135
0 27 10
0 26 31
0 84 144
0 90 154
0 88 152
0 87 151
7 105 53
2 91 48
7 122 142
0 132 182
0 132 183
0 127 180
0 125 61
0 122 60
3 144 121
0 165 191
2 167 201
4 166 201
0 141 64
4 135 66
0 154 131
2 171 189
2 175 203
0 175 206
0 144 65
0 153 97
0 178 167
0 189 204
6 193 216
7 195 219
74 11 0
106 0 97
98 0 158
79 0 154
44 1 147
17 25 142
22 22 0
12 18 18
0 72 140
0 85 155
0 83 152
0 83 151
1 95 46
0 78 37
2 106 124
0 122 177
0 122 177
0 118 175
0 124 60
0 120 59
6 141 113
2 165 188
3 167 202
5 166 201
0 138 63
1 134 63
4 161 130
2 185 196
8 189 213
9 190 217
0 151 35
3 167 83
0 192 168
0 207 214
1 212 230
2 214 235
151 32 3
164 0 70
184 0 174
183 0 173
178 0 169
163 0 166
158 42 0
142 19 0
159 0 144
157 0 177
144 0 174
133 0 170
137 112 0
117 94 0
87 88 95
51 90 197
33 91 201
27 89 197
19 142 5
14 137 2
4 150 67
3 183 196
5 184 219
0 182 218
27 154 0
30 154 0
6 175 95
21 208 201
21 217 233
5 217 238
123 182 0
115 191 48
116 214 161
142 232 224
163 239 244
171 241 249
154 33 4
161 0 37
178 0 164
184 0 174
184 0 174
184 0 174
164 40 0
167 32 1
174 0 122
186 0 177
185 0 175
184 0 174
200 99 1
195 91 7
201 76 76
202 66 198
201 76 212
197 73 210
223 189 12
219 184 7
218 183 4
204 202 194
193 203 240
187 201 243
208 204 12
207 204 12
201 209 39
197 233 199
208 242 243
205 243 250
222 209 17
224 217 53
219 232 164
223 245 229
232 250 249
235 251 253
154 33 4
159 0 13
174 0 148
184 0 174
184 0 174
184 0 174
161 37 0
162 34 1
170 0 98
182 0 171
184 0 174
184 0 174
197 89 2
197 90 2
212 78 71
210 71 189
212 75 212
211 72 211
236 182 12
234 178 10
248 181 8
244 202 191
242 200 240
240 200 244
244 207 23
244 207 23
254 219 50
252 239 192
247 248 245
246 249 252
248 213 22
255 227 90
254 241 178
250 250 232
250 253 250
252 254 254
154 33 4
158 4 4
170 0 122
184 0 174
184 0 174
184 0 174
162 38 0
160 34 2
168 0 83
177 0 160
184 0 174
184 0 174
194 86 4
196 88 2
211 75 67
211 74 181
210 70 210
210 66 210
235 178 9
234 177 8
253 189 52
250 209 194
246 207 239
245 204 245
246 207 22
249 209 22
255 225 105
255 244 210
254 250 247
254 250 253
255 219 57
255 233 135
255 245 201
255 252 239
255 254 252
255 255 255
